_includes/sprites.svg

<?xml version="1.0" encoding="UTF-8"?><!DOCTYPE svg PUBLIC "-//W3C//DTD SVG 1.1//EN" "http://www.w3.org/Graphics/SVG/1.1/DTD/svg11.dtd"><svg xmlns="http://www.w3.org/2000/svg"><symbol id="menu" viewBox="0 0 20 20"><path d="M16.4 9H3.6c-.552 0-.6.447-.6 1 0 .553.048 1 .6 1h12.8c.552 0 .6-.447.6-1 0-.553-.048-1-.6-1zm0 4H3.6c-.552 0-.6.447-.6 1 0 .553.048 1 .6 1h12.8c.552 0 .6-.447.6-1 0-.553-.048-1-.6-1zM3.6 7h12.8c.552 0 .6-.447.6-1 0-.553-.048-1-.6-1H3.6c-.552 0-.6.447-.6 1 0 .553.048 1 .6 1z"/></symbol></svg>

<?xml version="1.0" encoding="UTF-8"?><!DOCTYPE svg PUBLIC "-//W3C//DTD SVG 1.1//EN" "http://www.w3.org/Graphics/SVG/1.1/DTD/svg11.dtd"><svg xmlns="http://www.w3.org/2000/svg" xmlns:xlink="http://www.w3.org/1999/xlink"><symbol id="menu" viewBox="0 0 20 20">
<path d="M16.4,9H3.6C3.048,9,3,9.447,3,10c0,0.553,0.048,1,0.6,1H16.4c0.552,0,0.6-0.447,0.6-1C17,9.447,16.952,9,16.4,9z M16.4,13
	H3.6C3.048,13,3,13.447,3,14c0,0.553,0.048,1,0.6,1H16.4c0.552,0,0.6-0.447,0.6-1C17,13.447,16.952,13,16.4,13z M3.6,7H16.4
	C16.952,7,17,6.553,17,6c0-0.553-0.048-1-0.6-1H3.6C3.048,5,3,5.447,3,6C3,6.553,3.048,7,3.6,7z"/>
</symbol></svg>
